src/assets/outline/User.svg

<svg width="24" height="24" viewBox="0 0 24 24"  xmlns="http://www.w3.org/2000/svg">
<path d="M12 12.75C8.83 12.75 6.25 10.17 6.25 7C6.25 3.83 8.83 1.25 12 1.25C15.17 1.25 17.75 3.83 17.75 7C17.75 10.17 15.17 12.75 12 12.75ZM12 2.75C9.66 2.75 7.75 4.66 7.75 7C7.75 9.34 9.66 11.25 12 11.25C14.34 11.25 16.25 9.34 16.25 7C16.25 4.66 14.34 2.75 12 2.75Z" />
<path d="M20.5901 22.75C20.1801 22.75 19.8401 22.41 19.8401 22C19.8401 18.55 16.3202 15.75 12.0002 15.75C7.68015 15.75 4.16016 18.55 4.16016 22C4.16016 22.41 3.82016 22.75 3.41016 22.75C3.00016 22.75 2.66016 22.41 2.66016 22C2.66016 17.73 6.85015 14.25 12.0002 14.25C17.1502 14.25 21.3401 17.73 21.3401 22C21.3401 22.41 21.0001 22.75 20.5901 22.75Z" />
</svg>

<?xml version="1.0" encoding="UTF-8"?>
<svg width="24" height="24" viewBox="0 0 24 24" xmlns="http://www.w3.org/2000/svg">
 <path d="m12 12.75c-3.17 0-5.75-2.58-5.75-5.75s2.58-5.75 5.75-5.75 5.75 2.58 5.75 5.75-2.58 5.75-5.75 5.75zm0-10c-2.34 0-4.25 1.91-4.25 4.25s1.91 4.25 4.25 4.25 4.25-1.91 4.25-4.25-1.91-4.25-4.25-4.25z"/>
 <path d="m20.59 22.75c-0.41 0-0.75-0.34-0.75-0.75 0-3.45-3.5199-6.25-7.8399-6.25-4.32 0-7.84 2.8-7.84 6.25 0 0.41-0.34 0.75-0.75 0.75s-0.75-0.34-0.75-0.75c0-4.27 4.19-7.75 9.34-7.75 5.15 0 9.3399 3.48 9.3399 7.75 0 0.41-0.34 0.75-0.75 0.75z"/>
</svg>
